images/about_images/resume.svg

<?xml version="1.0" encoding="UTF-8"?><svg id="Layer_1" xmlns="http://www.w3.org/2000/svg" viewBox="0 0 375 543"><defs><style>.cls-1{fill:#a5a692;}</style></defs><g id="b"><g id="c"><g><path class="cls-1" d="M283.4,114.6h87.4L261.3,5.1V92.5c0,11.9,10.2,22,22.1,22.1h0Z"/><path class="cls-1" d="M283.4,131.5c-22.1,0-39.9-17.8-39.9-39.9V0H39.9C17.8,0,0,17.8,0,39V503.1c0,22.1,17.8,39.9,39.9,39.9H336c22.1,0,39-17.8,39-39.9V131.5h-91.6ZM72.1,291H213.8c5.1,0,8.5,3.4,8.5,8.5s-3.4,8.5-8.5,8.5H72.1c-5.1,0-8.5-3.4-8.5-8.5s4.3-8.5,8.5-8.5Zm-8.5-50c0-5.1,3.4-8.5,8.5-8.5H213.8c5.1,0,8.5,3.4,8.5,8.5s-3.4,8.5-8.5,8.5H72.1c-4.2,0-8.5-4.3-8.5-8.5h0Zm241,243.5H72.1c-5.1,0-8.5-3.4-8.5-8.5s3.4-8.5,8.5-8.5h232.5c5.1,0,8.5,3.4,8.5,8.5s-3.4,8.5-8.5,8.5h0Zm0-59.4H72.1c-5.1,0-8.5-3.4-8.5-8.5s3.4-8.5,8.5-8.5h232.5c5.1,0,8.5,3.4,8.5,8.5s-3.4,8.5-8.5,8.5h0Zm0-58.5H72.1c-5.1,0-8.5-3.4-8.5-8.5s3.4-8.5,8.5-8.5h232.5c5.1,0,8.5,3.4,8.5,8.5s-3.4,8.5-8.5,8.5h0Zm0-176.5H72.1c-5.1,0-8.5-3.4-8.5-8.5s3.4-8.5,8.5-8.5h232.5c5.1,0,8.5,3.4,8.5,8.5s-3.4,8.5-8.5,8.5h0Z"/></g></g></g></svg>

<?xml version="1.0" encoding="utf-8"?>
<!-- Generator: Adobe Illustrator 26.3.1, SVG Export Plug-In . SVG Version: 6.00 Build 0)  -->
<svg version="1.1" id="Layer_1" xmlns="http://www.w3.org/2000/svg" xmlns:xlink="http://www.w3.org/1999/xlink" x="0px" y="0px"
	 viewBox="0 0 375 543" style="enable-background:new 0 0 375 543;" xml:space="preserve">
<style type="text/css">
	.st0{fill:#FFFFFF;}
</style>
<g id="b">
	<g id="c">
		<g>
			<path class="st0" d="M283.4,114.6h87.4L261.3,5.1v87.4C261.3,104.4,271.5,114.5,283.4,114.6L283.4,114.6z"/>
			<path class="st0" d="M283.4,131.5c-22.1,0-39.9-17.8-39.9-39.9V0H39.9C17.8,0,0,17.8,0,39v464.1C0,525.2,17.8,543,39.9,543H336
				c22.1,0,39-17.8,39-39.9V131.5H283.4z M72.1,291h141.7c5.1,0,8.5,3.4,8.5,8.5s-3.4,8.5-8.5,8.5H72.1c-5.1,0-8.5-3.4-8.5-8.5
				S67.9,291,72.1,291z M63.6,241c0-5.1,3.4-8.5,8.5-8.5h141.7c5.1,0,8.5,3.4,8.5,8.5s-3.4,8.5-8.5,8.5H72.1
				C67.9,249.5,63.6,245.2,63.6,241L63.6,241z M304.6,484.5H72.1c-5.1,0-8.5-3.4-8.5-8.5s3.4-8.5,8.5-8.5h232.5
				c5.1,0,8.5,3.4,8.5,8.5S309.7,484.5,304.6,484.5L304.6,484.5z M304.6,425.1H72.1c-5.1,0-8.5-3.4-8.5-8.5s3.4-8.5,8.5-8.5h232.5
				c5.1,0,8.5,3.4,8.5,8.5S309.7,425.1,304.6,425.1L304.6,425.1z M304.6,366.6H72.1c-5.1,0-8.5-3.4-8.5-8.5s3.4-8.5,8.5-8.5h232.5
				c5.1,0,8.5,3.4,8.5,8.5S309.7,366.6,304.6,366.6L304.6,366.6z M304.6,190.1H72.1c-5.1,0-8.5-3.4-8.5-8.5s3.4-8.5,8.5-8.5h232.5
				c5.1,0,8.5,3.4,8.5,8.5S309.7,190.1,304.6,190.1L304.6,190.1z"/>
		</g>
	</g>
</g>
</svg>
